X:1
T:Pop Goes the Weasel
C:Traditional
M:6/8
L:1/8
Q:1/8=150
K:G
GAB c2 d | edc BAG | GAB c2 d | edc BAG |
BcB cBc | dcB cAG | GAB c2 d | edc BcA |
G3 G3 | G3 G3 |]
w: All a- round the mul- ber- ry bush | the mon- key chased the wea- sel | The mon- key thought 'twas all in fun | Pop goes the wea- sel |
w: A pen- ny for a spool of thread a pen- ny for a nee- dle | That's the way the mon- ey goes | Pop goes the wea- sel |
